X:1
T:Love So Amazing (New Hymn Setting) - Tun
T:Love So Amazing (New Hymn Setting) - Tun
T:Scott Werdebaugh, 1978, 2018
T:Isaac Watts-1707; Ralph E. Hudson-1882 (Adaptd)
T:© 1707 by Isaac Watts; © 1882 by Ralph E. Hudson; © 1978, 2018 by Scott Werdebaugh Copy and use freely for Christian worship or devotions w/o changes. All Other Rights Reserved.
T:© 1707 by Isaac Watts; © 1882 by Ralph E. Hudson; © 1978, 2018 by Scott Werdebaugh Copy and use freely for Christian worship or devotions w/o changes. All Other Rights Reserved.
T:© 1707 by Isaac Watts; © 1882 by Ralph E. Hudson; © 1978, 2018 by Scott Werdebaugh Copy and use freely for Christian worship or devotions w/o changes. All Other Rights Reserved.
T:© 1707 by Isaac Watts; © 1882 by Ralph E. Hudson; © 1978, 2018 by Scott Werdebaugh Copy and use freely for Christian worship or devotions w/o changes. All Other Rights Reserved.
C:Scott Werdebaugh, 1978, 2018
Z:© 1707 by Isaac Watts; © 1882 by Ralph E. Hudson; © 1978, 2018 by Scott Werdebaugh
Z:Copy and use freely for Christian worship or devotions w/o changes. All Other Rights Reserved.
%%score ( 1 2 ) ( 3 4 )
L:1/8
Q:1/4=112
M:4/4
K:Eb
V:1 treble 
V:2 treble 
V:3 bass 
V:4 bass 
V:1
"^In reverent reflection"!pp! [Ec]4 (B2 A2) | [CA]4 (G2 F2) |!mp! [EB]4 [CE]4!p!"^a tempo grad." | %3
w: ~~ ~~ *|~~ ~~ *|~~ ~~|
w: ~~ ~~ *|~~ ~~ *|~~ ~~|
 ([CE]2 [DF]2) ([EG]2 [FA]2) |!mp! (!fermata![EB]4 !fermata![DA]4)!p! |: %5
w: ~~ * ~~ *|~~ *|
w: ~~ * ~~ *|~~ *|
[Q:1/4=120]!mf! [EG]4 [DF]2 [EG]2 x2 | [FA]4 ([EG]2 [DA]2) x2 | (B2 e2) ([Ed]2 [Fc]2) x4 | %8
w: 1.When I sur-|vey the *|won- * drous *|
w: ~~ ~~ ~~|~~ ~~ *|~~ * ~~ *|
 ([Dc]4 [EB]4) | [EG]4 [DF]2 [EG]2 | [DA]4 ([EG]2 [DA]2) | [EB]4 [FA]4 | [EG]6 z2 | %13
w: cross; *|On which the|Prince of *|Glo- ry|died;|
w: ~~ *|~~ ~~ ~~|~~ ~~ *|~~ ~~|~~|
 [EG]4 [B,E]2 [DF]2 | [EG]4 ([CF]2 [EG]2) | ([DA]2 [Fc]2) ([FB]2 [DA]2) | ([FA]4 [EG]4) | %17
w: My rich- est|gain I *|count * but *|loss; *|
w: ~~ ~~ ~~|~~ ~~ *|~~ * ~~ *|~~ *|
 [Ec]4 [FB]2 [DA]2 | G4 ([CE]2 [FA]2) | [EG]4 (G2 F2) | [B,E]6 z2 | [DF]4 [CF]2 [B,G]2 | %22
w: And pour con-|tempt on *|all my *|pride.|For- bid it,|
w: ~~ ~~ ~~|~~ ~~ *|~~ ~~ *|~~|~~ ~~ ~~|
 [DA]4 ([EG]2 [DF]2) | [B,G]4 ([EG]2 [FA]2) x2 | [GB]6 z2 | [F=A]4 [FA]2 [GB]2 | %26
w: Lord, that *|I should *|boast|Save in the|
w: ~~ ~~ *|~~ ~~ *|~~|~~ ~~ ~~|
 [Fc]4 ([GB]2 [F=A]2) x2 | [FB]4 ([DB]2 [Fc]2) | [Fd]6 z2 | [Ge]4 [Ad]2 [Fc]2 | [Dc]4 [EB]4 | %31
w: death of *|Christ my *|God;|All the vain|things that|
w: ~~ ~~ *|~~ ~~ *|~~|~~ ~~ ~~|~~ ~~|
 [Ec]4 (B2 A2) | ([DA]4 [EG]4) x4 | [DF]4 [EG]2 [FA]2 | [EB]4 [Ec]4 | [EG]4 ([EG]2 [DF]2) | %36
w: charm me *|most, *|I sac- ri-|fice them|to His *|
w: ~~ ~~ *|~~ *|~~ ~~ ~~|~~ ~~|~~ ~~ *|
 [B,E]8 ||!mp! [EG]4 [Ge]2 [Bd]2 | [Ac]4 !breath![Fc]4 | [GB]4 (!breath![DB]2 [FA]2) | [EG]6 z2 | %41
w: blood.|2.See, from His|head, His|hands, His *|feet,|
w: ~~|~~ ~~ ~~|~~ ~~|~~ ~~ *|~~|
 [EG]4 [DF]2 [EG]2 | [DA]4 ([EG]2 [DA]2) | [EB]4 [FA]4 | [EG]6 z2 | [EG]4 [CE]2 [DF]2 | %46
w: Sor- row and|love flow *|ming- led|down;|Did e'er such|
w: ~~ ~~ ~~|~~ ~~ *|~~ ~~|~~|~~ ~~ ~~|
 [EG]4 ([DF]2 [EG]2) x2 | (A2 c2) ([FB]2 [EA]2) | (A4 G4) | [Fc]4 [FB]2 [FA]2 | [EG]4 (E2 A2) | %51
w: love and *|sor- * row *|meet *|Or thorns com-|pose so *|
w: ~~ ~~ *|~~ * ~~ *|~~ *|~~ ~~ ~~|~~ ~~ *|
 [EG]4 (G2 F2) | [B,E]6 z2 |[Q:1/4=124]"^Slightly Faster but Very Worshipful" [DF]4 [DF]2 [EG]2 | %54
w: rich a *|crown?|Were the whole|
w: ~~ ~~ *|~~|~~ ~~ ~~|
 [DA]4 ([EG]2 [DF]2) | [EG]4 ([EG]2 [DA]2) x2 | [GB]6 z2 | [^F=A]4 [FA]2 [GB]2 | %58
w: realm of *|na- ture *|mine,|That were an|
w: ~~ ~~ *|~~ ~~ *|~~|~~ ~~ ~~|
 [^Fc]4 ([GB]2 [F=A]2) |"^allarg." [GB]4 ([GB]2[Q:1/4=116] [=Ac]2) | [G=Bd]8"^(No Breath)" || %61
w: off'- ring *|far too *|small;|
w: ~~ ~~ *|~~ ~~ *|~~|
!mf! [Ge]4 [^Fd]2 [Fc]2 | [Ec]4 [GB]4 | [Ec]4 [=FB]2 [DA]2 x2 | ([FA]4 [EG]4)"^(No Breath)" x4 | %65
w: Love so a-|maz- ing,|Love so Di-|vine, *|
w: ~~ ~~ ~~|~~ ~~|~~ ~~ ~~|~~ *|
 [DF]4 [EG]2 [DA]2 | !breath![EB]4 [Ec]4 | !breath![EG]4 (G2 F2) | [B,E]6 z2 |: %69
w: De- mands my|soul, my|life, my *|all!|
w: ~~ ~~ ~~|~~ ~~|~~ ~~ *|~~|
 [EG]4 [DF]2 [EG]2 x2 | [FA]4 ([EG]2 [DA]2) x2 | (B2 e2) ([Ed]2 [Fc]2) x4 | ([Dc]4 [EB]4) | %73
w: 3.My life, my|love, I *|give * to *|Thee, *|
w: 4.Oh, Thou who|died on *|Cal- * v'ry's *|Tree, *|
 [EG]4 [DF]2 [EG]2 | [DA]4 ([EG]2 [DA]2) | [EB]4 [FA]4 | [EG]6 z2 | [EG]4 [B,E]2 [DF]2 | %78
w: Thou Lamb of|God who *|died for|me.|Oh, may I|
w: To save my|soul and *|make me|free,|I'll con- se-|
 [EG]4 ([CF]2 [EG]2) | ([DA]2 [Fc]2) ([FB]2 [DA]2) | ([FA]4 [EG]4) x4 | [Ec]4 [FB]2 [DA]2 | %82
w: ev- er *|faith- * ful *|be; *|On- ly to|
w: crate my *|life * to *|Thee; *|On- ly to|
 G4 [CE]2 [FA]2 | [EG]4 (G2 F2) | [B,E]6 z2 | [DF]4 [CF]2 [B,G]2 | [DA]4 ([EG]2 [DF]2) | %87
w: my Sav- ior|and my *|God!|I now be-|lieve that *|
w: my Sav- ior|and my *|God!|I'll live for|Him who *|
 [B,G]4 [EG]2 [FA]2 x2 | [GB]6 z2 | [F=A]4 [FA]2 [GB]2 | [Fc]4 [GB]2 [F=A]2 x2 | %91
w: Thou dost re-|ceive;|For Thou hast|died so that|
w: died for \-|me;|How pre- cious|to Him \-|
 [FB]4 ([DB]2 [Fc]2) | [Fd]6 z2 | [Ge]4 [Ad]2 [Fc]2 | [Dc]4 [EB]4 | [Ec]4 B2 A2 | %96
w: I might *|live,|And now hence-|forth I|shall trust in|
w: I must *|be!|Love so a-|maz- ing,|Love so Di-|
 ([DA]4 [EG]4)"^No Breath on 4th Stanza" x4 | [DF]4 [EG]2 [FA]2 | [EB]4 !breath![Ec]4 | %99
w: Thee; *|Trust in my|Sav- ior|
w: vine, *|De- mands my|soul, my|
 [EG]4 (!breath![EG]2 [DF]2) | [B,E]8"^Play 2 times" :|"^Believe It!"!fff! F4 G2 A2 | B4 G4 | %103
w: and my *|God!|||
w: life, my *|all!|This love of|God de-|
 E4 F4 | E6 z2 |"^Firmly"!mf! ([FA]4 [EG]2 [DF]2) | [EG]6 z2 |"^With Conviction!"!f! E8 | E8 || %109
w: ||||||
w: mands my|all!|A- * *|men.|A-|men.|
[Q:1/4=112]"^Very Reverently"!pp! [CA]4 (G2 F2) |!p! ([EB]4 [CE]4) | %111
w: ||
w: ||
[Q:1/4=104]"^rit."!pp! ([CE]2 [EG]2) ([DF]2 [CE]2) | !fermata![B,E]8[Q:1/4=100] |] %113
w: ||
w: ||
V:2
 x4 D4 | x4 D4 | x8 | x8 | x8 |: x10 | x10 | E4 x8 | x8 | x8 | x8 | x8 | x8 | x8 | x8 | x8 | x8 | %17
 x8 | (E2 D2) x4 | x4 D4 | x8 | x8 | x8 | x10 | x8 | x8 | x10 | x8 | x8 | x8 | x8 | x4 F4 | x12 | %33
 x8 | x8 | x8 | x8 || x8 | x8 | x8 | x8 | x8 | x8 | x8 | x8 | x8 | x10 | F4 x4 | E8 | x8 | x4 E4 | %51
 x4 D4 | x8 | x8 | x8 | x10 | x8 | x8 | x8 | x8 | x8 || x8 | x8 | x10 | x12 | x8 | x8 | x4 D4 | %68
 x8 |: x10 | x10 | E4 x8 | x8 | x8 | x8 | x8 | x8 | x8 | x8 | x8 | x12 | x8 | (E2 D2) x4 | x4 D4 | %84
 x8 | x8 | x8 | x10 | x8 | x8 | x10 | x8 | x8 | x8 | x8 | x4 F4 | x12 | x8 | x8 | x8 | x8 :| %101
 F4 G2 A2 | B4 G4 | E4 F4 | E6 x2 | x8 | x8 | E8 | E8 || x4 D4 | x8 | x8 | x8 |] %113
V:3
!pp! (A,2 G,2) (F,2 B,2) | (E,2 F,2) (B,2 A,2) |!mp! G,4 G,4!p! | A,4 A,4 | %4
!mp! ([E,C]4 [F,B,]4)!p! |:!mf! [E,B,]4 B,4 E,2 | [D,B,]4 B,4 F,2 | G,4 B,,2 A,4 D,2 | %8
 [F,A,]4 [E,G,]4 | [E,B,]4 B,2 [G,B,]2 | [F,B,]4 B,4 | ([E,G,]2 [D,B,]2) ([C,A,]2 [D,B,]2) | %12
 [E,B,]6 z2 | [E,B,]4 [E,G,]2 [B,,B,]2 | [E,B,]4 A,4 | ([B,,F,]2 [C,A,]2) ([D,A,]2 [B,,F,]2) | %16
 ([B,,D]4 [E,B,]4) | A,4 [D,A,]2 [F,B,]2 | [E,B,]4 ([F,A,]2 [E,C]2) | (B,2 C2) (B,2 A,2) | %20
 [E,G,]6 z2 | [B,,B,]4 A,2 G,2 | [B,,F,]4 (B,2 A,2) | [E,G,]4 B,4 D,2 | [E,B,]6 z2 | [F,C]4 C2 C2 | %26
 [F,=A,]4 C4 _E,2 | [D,B,]4 ([G,B,]2 [E,=A,]2) | (B,4 !fermata!_A,2) z2 | %29
 (G,2 B,2) [F,B,]2 [D,A,]2 | [B,,A,]4 [E,G,]4 | [F,A,]4 (A,2 B,2) | B,8 E,4 | %33
 [B,,B,]4 [C,B,]2 [D,B,]2 | [E,G,]4 [F,A,]4 | [E,B,]4 ([A,,C]2 [B,,A,]2) | [E,,G,]8 || %37
!mp! [E,B,]4 [E,B,]2 [B,,F,]2 | [A,,E,]4 !breath![A,,E,]4 | [E,,E,]4 (!breath!B,2 D2) | %40
 [E,B,]6 z2 | [E,B,]4 [B,,B,]2 [E,B,]2 | [B,,F,]4 ([E,B,]2 [B,,F,]2) | [E,G,]4 [B,D]4 | %44
 [E,B,]6 z2 | [E,B,]4 [A,,A,]2 [B,,B,]2 | [E,B,]4 B,4 E,2 | [B,D]2 [A,C]2 ([B,D]2 [A,C]2) | %48
 ([A,C]4 [E,B,]4) | [A,E]4 [F,D]2 [D,B,]2 | [E,B,]4 [E,C]4 | [E,B,]4 [B,,B,]4 | [E,G,]6 z2 | %53
 [B,,B,]4 B,2 [G,B,]2 | [F,B,]4 B,4 | [E,B,]4 B,4 F,2 | [E,B,]6 z2 | [D,D]4 [D,C]2 [D,B,]2 | %58
 [D,=A,]4 D4 |"^allarg." [B,,D]4 ([C,E-]2 =F2) | (G4 F4) ||!mf! E4 [=A,D]2 [A,D]2 | B,4 [E,B,]4 | %63
 A,4 _E,2 [D,A,]2 [F,B,]2 | B,8"^(No Breath)" E,4 | B,4 [G,B,]2 [F,B,]2 | !breath![E,G,]4 [F,A,]4 | %67
 !breath![E,B,]4 (B,2 A,2) | [E,,E,G,]6 z2 |: [E,B,]4 B,4 E,2 | [D,B,]4 B,4 F,2 | %71
 G,4 B,,2 A,4 D,2 | [F,A,]4 [E,G,]4 | [E,B,]4 B,2 [G,B,]2 | [F,B,]4 B,4 | %75
 ([E,G,]2 [D,B,]2) ([C,A,]2 [D,B,]2) | [E,B,]6 z2 | [E,B,]4 [E,G,]2 [B,,B,]2 | [E,B,]4 A,4 | %79
 ([B,,F,]2 [C,A,]2) ([D,A,]2 [B,,F,]2) | B,8 E,4 | A,4 [D,A,]2 [F,B,]2 | [E,B,]4 [F,A,]2 [E,C]2 | %83
 (B,2 C2) (B,2 A,2) | [E,G,]6 z2 | [B,,B,]4 A,2 G,2 | [B,,F,]4 (B,2 A,2) | [E,G,]4 B,4 D,2 | %88
 [E,B,]6 z2 | [F,C]4 C2 C2 | [F,=A,]4 C4 _E,2 | [D,B,]4 ([G,B,]2 [E,=A,]2) | %92
 (B,4 !fermata!_A,2) z2 | (G,2 B,2) [F,B,]2 [D,A,]2 | [B,,A,]4 [E,G,]4 | [F,A,]4 A,2 B,2 | %96
 B,8 E,4 | [B,,B,]4 [C,B,]2 [D,B,]2 | [E,G,]4 [F,A,]4 | [E,B,]4 ([A,,C]2 [B,,A,]2) | %100
 [E,,E,G,]8"^Play 2 times" :|!fff! [F,,F,]4 [G,,G,]2 [A,,A,]2 | [B,,B,]4 [G,,G,]4 | %103
 [E,,E,]4 [F,,F,]4 | [E,,E,]6 z2 | [A,C]4 [G,B,]2 [F,A,]2 | [E,B,]6 z2 | %107
!f! ([A,C]4 [G,B,]2 [F,A,]2) | [E,,E,G,B,]8 ||!pp! (E,2 F,2) (B,2 A,2) |!p! G,4 G,4 | %111
!pp! ([A,,F,]2 [B,,E,]2) (B,2 A,2) | [B,,G,]8 |] %113
V:4
 A,,4 B,,4 | A,,4 B,,4 | (E,2 D,2) (C,2 B,,2) | (A,,2 B,,2) (C,2 D,2) | x8 |: x4 B,,2 x4 | %6
 x4 E,2 x4 | E,2 A,,2 x8 | x8 | x4 A,2 x2 | x4 (G,2 F,2) | x8 | x8 | x8 | x4 (E,2 C,2) | x8 | x8 | %17
 (F,2 E,2) x4 | x8 | E,4 B,,4 | x8 | x4 E,4 | x4 B,,4 | x4 E,2 x4 | x8 | x4 F,2 =E,2 | x4 =E,2 x4 | %27
 x8 | B,,6 x2 | E,4 x4 | x8 | x4 D,4 | F,4 x8 | x8 | x8 | x8 | x8 || x8 | x8 | x4 B,,4 | x8 | x8 | %42
 x8 | x8 | x8 | x8 | x4 B,,2 x4 | x8 | x8 | x8 | x8 | x8 | x8 | x4 A,2 x2 | x4 (E,2 B,,2) | %55
 x4 E,2 x4 | x8 | x8 | x4 (D,2 C,2) | x6 [=F,E]2 | [G,=B,]8 || (C2 _B,2) x4 | (G,2 =F,2) x4 | %63
 F,2 x8 | D,4 x8 | A,4 x4 | x8 | x4 B,,4 | x8 |: x4 B,,2 x4 | x4 E,2 x4 | E,2 A,,2 x8 | x8 | %73
 x4 A,2 x2 | x4 (G,2 F,2) | x8 | x8 | x8 | x4 (E,2 C,2) | x8 | D,4 x8 | (F,2 E,2) x4 | x8 | %83
 E,4 B,,4 | x8 | x4 E,4 | x4 B,,4 | x4 E,2 x4 | x8 | x4 F,2 =E,2 | x4 =E,2 x4 | x8 | B,,6 x2 | %93
 E,4 x4 | x8 | x4 D,4 | F,4 x8 | x8 | x8 | x8 | x8 :| x8 | x8 | x8 | x8 | x8 | x8 | x8 | x8 || %109
 A,,4 B,,4 | (E,2 D,2 C,2 B,,2) | x4 B,,4 | (E,,4 E,,,4) |] %113

